; generated by PrusaSlicer 2.6.0+win64 on 2023-07-28 at 06:43:27 UTC


;
;
; 

; external perimeters extrusion width = 0.45mm
; perimeters extrusion width = 0.45mm
; infill extrusion width = 0.45mm
; solid infill extrusion width = 0.45mm
; top infill extrusion width = 0.40mm
; support material extrusion width = 0.35mm
; first layer extrusion width = 0.42mm

; external perimeters extrusion width = 0.45mm
; perimeters extrusion width = 0.45mm
; infill extrusion width = 0.45mm
; solid infill extrusion width = 0.45mm
; top infill extrusion width = 0.40mm
; support material extrusion width = 0.35mm
; first layer extrusion width = 0.42mm

M73 P0 R58
M73 Q0 S58
M201 X1000 Y1000 Z200 E5000 ; sets maximum accelerations, mm/sec^2
M203 X200 Y200 Z12 E120 ; sets maximum feedrates, mm / sec
M204 S1250 T1250 ; sets acceleration (S) and retract acceleration (R), mm/sec^2
M205 X8.00 Y8.00 Z0.40 E4.50 ; sets the jerk limits, mm/sec
M205 S0 T0 ; sets the minimum extruding and travel feed rate, mm/sec
;TYPE:Custom
M862.3 P "MK3S" ; printer model check
M862.1 P0.4 ; nozzle diameter check
M115 U3.12.2 ; tell printer latest fw version
G90 ; use absolute coordinates
M83 ; extruder relative mode
M104 S215 ; set extruder temp
M140 S60 ; set bed temp
M190 S60 ; wait for bed temp
M109 S215 ; wait for extruder temp
G28 W ; home all without mesh bed level
G80 ; mesh bed leveling

G1 Z0.2 F720
G1 Y-3 F1000 ; go outside print area
G92 E0
G1 X60 E9 F1000 ; intro line
G1 X100 E12.5 F1000 ; intro line

G92 E0
M221 S95

; Don't change E values below. Excessive value can damage the printer.
M907 E430 ; set extruder motor current
G21 ; set units to millimeters
G90 ; use absolute coordinates
M83 ; use relative distances for extrusion
M900 K0.05 ; Filament gcode LA 1.5
M900 K30 ; Filament gcode LA 1.0
M107
;LAYER_CHANGE
;Z:0.2
;HEIGHT:0.2
;BEFORE_LAYER_CHANGE
G92 E0.0
;0.2


G1 E-.8 F2100
G1 Z.4 F720
;AFTER_LAYER_CHANGE
;0.2
G1 X126.557 Y86.021 F10800
G1 Z.2 F720
G1 E.8 F2100
M204 S800
;TYPE:Skirt/Brim
;WIDTH:0.42
G1 F1200
G1 X127.457 Y84.996 E.04277
G1 X128.717 Y84.634 E.0411
G1 X151.217 Y84.634 E.70547
G1 X151.997 Y84.766 E.0248
G1 X159.033 Y87.208 E.23352
G1 X160.139 Y88.007 E.04278
G1 X160.517 Y88.727 E.0255
G1 X169.317 Y116.148 E.90296
G1 X169.431 Y116.875 E.02307
G1 X169.431 Y129.683 E.40159
G1 X169.039 Y130.99 E.04278
G1 X168.067 Y131.833 E.04034
G1 X154.803 Y138.083 E.45974
G1 X153.789 Y138.309 E.03257
G1 X124.789 Y138.309 E.90927
G1 X123.508 Y137.935 E.04184
G1 X113.744 Y131.685 E.36349
G1 X112.854 Y130.651 E.04278
M73 P0 R57
G1 X112.648 Y129.683 E.03103
G1 X112.648 Y116.875 E.40159
G1 X112.864 Y115.884 E.0318
G1 X126.532 Y86.075 E1.02821
M204 S1000
; printing object Enclosure - Door-1.STL id:0 copy 0
;WIPE_START
G1 F8640
G1 X127.457 Y84.996 E-.32816
G1 X128.717 Y84.634 E-.30271
G1 X129.449 Y84.634 E-.16913
;WIPE_END
G1 Z.6 F720
G1 X158.253 Y104.569 F10800
G1 Z.2 F720
G1 E.8 F2100
M204 S800
;TYPE:Support material
G1 F1200
G1 X151.697 Y104.569 E.20556
G1 X151.697 Y101.991 E.08083
G1 X153.45 Y101.991 E.05496
G1 X153.731 Y101.71 E.01246
G1 X153.731 Y92.312 E.29467
G1 X153.45 Y92.031 E.01246
G1 X151.697 Y92.031 E.05496
G1 X151.697 Y89.454 E.0808
G1 X158.253 Y89.454 E.20556
G1 X158.253 Y104.512 E.47213
M204 S1000
G1 X157.808 Y104.399 F10800
M204 S800
G1 F1200
G1 X157.808 Y89.793 E.45796
G1 X157.389 Y89.793 E.01314
G1 X157.389 Y104.229 E.45263
G1 X156.97 Y104.229 E.01314
G1 X156.97 Y89.793 E.45263
G1 X156.551 Y89.793 E.01314
G1 X156.551 Y104.229 E.45263
G1 X156.132 Y104.229 E.01314
G1 X156.132 Y89.793 E.45263
G1 X155.713 Y89.793 E.01314
G1 X155.713 Y104.229 E.45263
G1 X155.294 Y104.229 E.01314
G1 X155.294 Y89.793 E.45263
G1 X154.875 Y89.793 E.01314
G1 X154.875 Y104.229 E.45263
G1 X154.456 Y104.229 E.01314
G1 X154.456 Y89.793 E.45263
G1 X154.037 Y89.793 E.01314
G1 X154.037 Y104.229 E.45263
G1 X153.618 Y104.229 E.01314
G1 X153.618 Y102.303 E.06039
G1 X153.59 Y102.331 E.00124
G1 X153.199 Y102.331 E.01226
G1 X153.199 Y104.229 E.05951
G1 X152.78 Y104.229 E.01314
G1 X152.78 Y102.331 E.05951
G1 X152.361 Y102.331 E.01314
G1 X152.361 Y104.399 E.06484
M204 S1000
;WIPE_START
G1 F8640
G1 X152.361 Y102.331 E-.47751
G1 X152.78 Y102.331 E-.09675
G1 X152.78 Y103.309 E-.22574
;WIPE_END
G1 Z.6 F720
G1 X153.618 Y91.959 F10800
G1 Z.2 F720
G1 E.8 F2100
M204 S800
G1 F1200
G1 X153.618 Y89.793 E.06791
G1 X153.199 Y89.793 E.01314
G1 X153.199 Y91.692 E.05954
G1 X152.78 Y91.692 E.01314
G1 X152.78 Y89.793 E.05954
G1 X152.361 Y89.793 E.01314
G1 X152.361 Y91.862 E.06487
M204 S1000
;WIPE_START
G1 F8640
G1 X152.361 Y89.793 E-.47774
G1 X152.78 Y89.793 E-.09675
G1 X152.78 Y90.77 E-.22551
;WIPE_END
G1 Z.6 F720
G1 X150.912 Y100.747 F10800
G1 Z.2 F720
G1 E.8 F2100
M204 S800
;TYPE:Perimeter
;WIDTH:0.419999
G1 F1200
G1 X150.712 Y100.8 E.00649
G1 X150.505 Y101.009 E.00922
G1 X150.43 Y101.29 E.00912
G1 X150.43 Y106.224 E.1547
G1 X129.504 Y106.224 E.65612
G1 X129.504 Y87.798 E.57773
G1 X150.43 Y87.798 E.65612
G1 X150.43 Y92.733 E.15473
G1 X150.505 Y93.014 E.00912
G1 X150.712 Y93.222 E.0092
G1 X150.996 Y93.298 E.00922
G1 X152.464 Y93.298 E.04603
G1 X152.464 Y100.724 E.23284
G1 X150.97 Y100.731 E.04684
M204 S1000
G1 X150.996 Y101.101 F10800
M204 S800
;TYPE:External perimeter
G1 F1200
G1 X150.877 Y101.144 E.00397
G1 X150.807 Y101.29 E.00508
G1 X150.807 Y106.601 E.16652
G1 X129.127 Y106.601 E.67976
G1 X129.127 Y87.421 E.60137
M73 P1 R57
M73 Q1 S58
G1 X150.807 Y87.421 E.67976
G1 X150.807 Y92.733 E.16655
G1 X150.847 Y92.849 E.00385
G1 X150.996 Y92.921 E.00519
G1 X152.841 Y92.921 E.05785
G1 X152.841 Y101.101 E.25648
G1 X151.056 Y101.101 E.05597
M204 S1000
G1 X150.878 Y101.056 F10800
;WIPE_START
G1 F8640
G1 X150.877 Y101.144 E-.04251
G1 X150.807 Y101.29 E-.03739
G1 X150.807 Y104.409 E-.7201
;WIPE_END
G1 Z.6 F720
G1 X150.261 Y88.738 F10800
G1 Z.2 F720
G1 E.8 F2100
M204 S800
;TYPE:Solid infill
;WIDTH:0.423464
G1 F1200
G1 X149.661 Y88.138 E.02685
G1 X149.123 Y88.138 E.01702
M73 Q1 S57
G1 X150.091 Y89.106 E.04332
G1 X150.091 Y89.644 E.01702
G1 X148.584 Y88.138 E.06741
G1 X148.046 Y88.138 E.01702
G1 X150.091 Y90.182 E.09149
G1 X150.091 Y90.721 E.01706
G1 X147.508 Y88.138 E.11559
G1 X146.97 Y88.138 E.01702
G1 X150.091 Y91.259 E.13966
G1 X150.091 Y91.797 E.01702
G1 X146.432 Y88.138 E.16374
G1 X145.894 Y88.138 E.01702
G1 X150.261 Y92.505 E.19542
M204 S1000
;WIPE_START
G1 F8640
G1 X147.811 Y90.055 E-.8
;WIPE_END
G1 Z.6 F720
G1 X151.762 Y93.468 F10800
G1 Z.2 F720
G1 E.8 F2100
M204 S800
G1 F1200
G1 X152.124 Y93.83 E.0162
G1 X152.124 Y94.369 E.01706
G1 X151.224 Y93.468 E.0403
M204 S1000
;WIPE_START
G1 F8640
G1 X152.124 Y94.369 E-.29405
G1 X152.124 Y93.83 E-.12446
G1 X151.762 Y93.468 E-.11821
;WIPE_END
G1 E-.26328 F2100
G1 Z.6 F720
G1 X152.294 Y95.076 F10800
G1 Z.2 F720
G1 E.8 F2100
M204 S800
G1 F1200
G1 X145.355 Y88.138 E.31049
G1 X144.817 Y88.138 E.01702
G1 X152.124 Y95.445 E.32698
G1 X152.124 Y95.983 E.01702
G1 X144.279 Y88.138 E.35106
G1 X143.741 Y88.138 E.01702
G1 X152.124 Y96.521 E.37513
G1 X152.124 Y97.059 E.01702
G1 X143.203 Y88.138 E.39921
G1 X142.665 Y88.138 E.01702
G1 X152.124 Y97.598 E.4233
G1 X152.124 Y98.136 E.01702
G1 X142.126 Y88.138 E.4474
G1 X141.588 Y88.138 E.01702
G1 X152.124 Y98.674 E.47148
G1 X152.124 Y99.212 E.01702
G1 X141.05 Y88.138 E.49555
G1 X140.512 Y88.138 E.01702
G1 X152.124 Y99.75 E.51963
G1 X152.124 Y100.288 E.01702
G1 X139.974 Y88.138 E.5437
G1 X139.435 Y88.138 E.01706
G1 X151.683 Y100.385 E.54806
G1 X151.144 Y100.385 E.01706
G1 X138.897 Y88.138 E.54804
G1 X138.359 Y88.138 E.01702
G1 X150.67 Y100.449 E.55091
G1 X150.541 Y100.507 E.00448
G1 X150.346 Y100.663 E.0079
G1 X137.821 Y88.138 E.56048
G1 X137.283 Y88.138 E.01702
G1 X150.142 Y100.997 E.57543
G1 X150.091 Y101.276 E.00897
G1 X150.091 Y101.484 E.00658
G1 X136.745 Y88.138 E.59722
G1 X136.206 Y88.138 E.01706
G1 X150.091 Y102.022 E.62132
G1 X150.091 Y102.56 E.01702
G1 X135.668 Y88.138 E.64539
G1 X135.13 Y88.138 E.01702
G1 X150.091 Y103.099 E.66949
G1 X150.091 Y103.637 E.01702
G1 X134.592 Y88.138 E.69357
G1 X134.054 Y88.138 E.01702
G1 X150.091 Y104.175 E.71764
G1 X150.091 Y104.713 E.01702
G1 X133.516 Y88.138 E.74172
G1 X132.977 Y88.138 E.01706
G1 X150.091 Y105.251 E.76581
G1 X150.091 Y105.789 E.01702
G1 X132.439 Y88.138 E.78989
G1 X131.901 Y88.138 E.01702
G1 X149.648 Y105.885 E.79416
G1 X149.11 Y105.885 E.01702
G1 X131.363 Y88.138 E.79416
G1 X130.825 Y88.138 E.01702
G1 X148.572 Y105.885 E.79416
G1 X148.034 Y105.885 E.01702
G1 X130.287 Y88.138 E.79416
G1 X129.844 Y88.138 E.01402
G1 X129.844 Y88.233 E.00301
G1 X147.496 Y105.885 E.78991
G1 X146.957 Y105.885 E.01706
M73 P2 R57
M73 Q2 S57
G1 X129.844 Y88.771 E.76581
G1 X129.844 Y89.309 E.01702
G1 X146.419 Y105.885 E.74174
G1 X145.881 Y105.885 E.01702
G1 X129.844 Y89.848 E.71764
G1 X129.844 Y90.386 E.01702
M73 P2 R56
G1 X145.343 Y105.885 E.69357
G1 X144.805 Y105.885 E.01702
G1 X129.844 Y90.924 E.66949
G1 X129.844 Y91.462 E.01702
G1 X144.266 Y105.885 E.64539
G1 X143.728 Y105.885 E.01702
G1 X129.844 Y92 E.62132
G1 X129.844 Y92.538 E.01702
G1 X143.19 Y105.885 E.59724
G1 X142.652 Y105.885 E.01702
G1 X129.844 Y93.077 E.57315
G1 X129.844 Y93.615 E.01702
G1 X142.114 Y105.885 E.54907
G1 X141.576 Y105.885 E.01702
G1 X129.844 Y94.153 E.525
G1 X129.844 Y94.691 E.01702
G1 X141.037 Y105.885 E.5009
G1 X140.499 Y105.885 E.01702
G1 X129.844 Y95.229 E.47682
G1 X129.844 Y95.767 E.01702
G1 X139.961 Y105.885 E.45275
G1 X139.423 Y105.885 E.01702
G1 X129.844 Y96.306 E.42865
G1 X129.844 Y96.844 E.01702
G1 X138.885 Y105.885 E.40458
G1 X138.347 Y105.885 E.01702
G1 X129.844 Y97.382 E.3805
G1 X129.844 Y97.92 E.01702
G1 X137.808 Y105.885 E.3564
G1 X137.27 Y105.885 E.01702
G1 X129.844 Y98.458 E.33233
G1 X129.844 Y98.997 E.01706
G1 X136.732 Y105.885 E.30823
G1 X136.194 Y105.885 E.01702
G1 X129.844 Y99.535 E.28416
G1 X129.844 Y100.073 E.01702
G1 X135.656 Y105.885 E.26008
G1 X135.118 Y105.885 E.01702
G1 X129.844 Y100.611 E.23601
G1 X129.844 Y101.149 E.01702
G1 X134.579 Y105.885 E.21191
G1 X134.041 Y105.885 E.01702
G1 X129.844 Y101.687 E.18783
G1 X129.844 Y102.226 E.01706
G1 X133.503 Y105.885 E.16374
G1 X132.965 Y105.885 E.01702
G1 X129.844 Y102.764 E.13966
G1 X129.844 Y103.302 E.01702
G1 X132.427 Y105.885 E.11559
G1 X131.889 Y105.885 E.01702
G1 X129.844 Y103.84 E.09151
G1 X129.844 Y104.378 E.01702
G1 X131.35 Y105.885 E.06741
G1 X130.812 Y105.885 E.01702
G1 X129.844 Y104.916 E.04334
G1 X129.844 Y105.455 E.01706
G1 X130.444 Y106.054 E.02683
M204 S1000
; stop printing object Enclosure - Door-1.STL id:0 copy 0
; printing object Enclosure - Enclosure-1.STL id:1 copy 0
;WIPE_START
G1 F8640
G1 X129.844 Y105.455 E-.19576
G1 X129.844 Y104.916 E-.12446
G1 X130.812 Y105.885 E-.31626
G1 X131.35 Y105.885 E-.12423
G1 X131.23 Y105.765 E-.03929
;WIPE_END
G1 Z.6 F720
G1 X124.309 Y129.683 F10800
G1 Z.2 F720
G1 E.8 F2100
M204 S800
;TYPE:Support material
;WIDTH:0.42
G1 F1200
G1 X115.025 Y129.683 E.29109
G1 X115.025 Y116.875 E.40159
G1 X124.309 Y116.875 E.29109
G1 X124.309 Y129.626 E.3998
M204 S1000
G1 X123.861 Y129.513 F10800
M204 S800
G1 F1200
G1 X123.861 Y117.214 E.38563
G1 X123.442 Y117.214 E.01314
G1 X123.442 Y129.344 E.38033
G1 X123.023 Y129.344 E.01314
G1 X123.023 Y117.214 E.38033
G1 X122.604 Y117.214 E.01314
G1 X122.604 Y129.344 E.38033
G1 X122.185 Y129.344 E.01314
G1 X122.185 Y117.214 E.38033
G1 X121.766 Y117.214 E.01314
G1 X121.766 Y129.344 E.38033
G1 X121.347 Y129.344 E.01314
G1 X121.347 Y117.214 E.38033
G1 X120.928 Y117.214 E.01314
M73 Q2 S56
G1 X120.928 Y129.344 E.38033
G1 X120.51 Y129.344 E.01311
G1 X120.51 Y117.214 E.38033
G1 X120.091 Y117.214 E.01314
G1 X120.091 Y129.344 E.38033
G1 X119.672 Y129.344 E.01314
G1 X119.672 Y117.214 E.38033
G1 X119.253 Y117.214 E.01314
G1 X119.253 Y129.344 E.38033
G1 X118.834 Y129.344 E.01314
G1 X118.834 Y117.214 E.38033
G1 X118.415 Y117.214 E.01314
G1 X118.415 Y129.344 E.38033
G1 X117.996 Y129.344 E.01314
G1 X117.996 Y117.214 E.38033
G1 X117.577 Y117.214 E.01314
G1 X117.577 Y129.344 E.38033
G1 X117.158 Y129.344 E.01314
G1 X117.158 Y117.214 E.38033
G1 X116.739 Y117.214 E.01314
M73 P3 R56
M73 Q3 S56
G1 X116.739 Y129.344 E.38033
G1 X116.32 Y129.344 E.01314
G1 X116.32 Y117.214 E.38033
G1 X115.901 Y117.214 E.01314
G1 X115.901 Y129.344 E.38033
G1 X115.482 Y129.344 E.01314
G1 X115.482 Y117.044 E.38566
M204 S1000
;WIPE_START
G1 F8640
G1 X115.482 Y120.509 E-.8
;WIPE_END
G1 Z.6 F720
G1 X157.825 Y116.875 F10800
G1 Z.2 F720
G1 E.8 F2100
M204 S800
G1 F1200
G1 X167.054 Y116.875 E.28937
G1 X167.054 Y129.683 E.40159
G1 X157.825 Y129.683 E.28937
G1 X157.825 Y131.99 E.07233
G1 X154.269 Y131.99 E.1115
G1 X154.269 Y114.568 E.54625
G1 X157.825 Y114.568 E.1115
G1 X157.825 Y116.818 E.07055
M204 S1000
G1 X166.597 Y129.513 F10800
M204 S800
G1 F1200
G1 X166.597 Y117.214 E.38563
G1 X166.178 Y117.214 E.01314
G1 X166.178 Y129.344 E.38033
G1 X165.759 Y129.344 E.01314
G1 X165.759 Y117.214 E.38033
G1 X165.34 Y117.214 E.01314
G1 X165.34 Y129.344 E.38033
G1 X164.921 Y129.344 E.01314
G1 X164.921 Y117.214 E.38033
G1 X164.502 Y117.214 E.01314
G1 X164.502 Y129.344 E.38033
G1 X164.083 Y129.344 E.01314
G1 X164.083 Y117.214 E.38033
G1 X163.664 Y117.214 E.01314
G1 X163.664 Y129.344 E.38033
G1 X163.245 Y129.344 E.01314
G1 X163.245 Y117.214 E.38033
G1 X162.826 Y117.214 E.01314
G1 X162.826 Y129.344 E.38033
G1 X162.407 Y129.344 E.01314
G1 X162.407 Y117.214 E.38033
G1 X161.988 Y117.214 E.01314
G1 X161.988 Y129.344 E.38033
G1 X161.569 Y129.344 E.01314
G1 X161.569 Y117.214 E.38033
G1 X161.15 Y117.214 E.01314
G1 X161.15 Y129.344 E.38033
G1 X160.731 Y129.344 E.01314
G1 X160.731 Y117.214 E.38033
G1 X160.312 Y117.214 E.01314
G1 X160.312 Y129.344 E.38033
G1 X159.893 Y129.344 E.01314
G1 X159.893 Y117.214 E.38033
G1 X159.474 Y117.214 E.01314
G1 X159.474 Y129.344 E.38033
G1 X159.055 Y129.344 E.01314
G1 X159.055 Y117.214 E.38033
G1 X158.636 Y117.214 E.01314
G1 X158.636 Y129.344 E.38033
G1 X158.217 Y129.344 E.01314
G1 X158.217 Y117.214 E.38033
G1 X157.798 Y117.214 E.01314
G1 X157.798 Y129.344 E.38033
G1 X157.486 Y129.344 E.00978
G1 X157.486 Y131.651 E.07233
G1 X157.379 Y131.651 E.00335
G1 X157.379 Y114.907 E.525
G1 X156.961 Y114.907 E.01311
G1 X156.961 Y131.651 E.525
G1 X156.542 Y131.651 E.01314
G1 X156.542 Y114.907 E.525
G1 X156.123 Y114.907 E.01314
G1 X156.123 Y131.651 E.525
G1 X155.704 Y131.651 E.01314
G1 X155.704 Y114.907 E.525
G1 X155.285 Y114.907 E.01314
G1 X155.285 Y131.651 E.525
G1 X154.866 Y131.651 E.01314
G1 X154.866 Y114.737 E.53033
M204 S1000
;WIPE_START
G1 F8640
G1 X154.866 Y118.202 E-.8
;WIPE_END
G1 Z.6 F720
G1 X125.576 Y135.145 F10800
G1 Z.2 F720
G1 E.8 F2100
M204 S800
;TYPE:Perimeter
;WIDTH:0.419999
G1 F1200
G1 X125.576 Y113.719 E.6718
G1 X153.002 Y113.719 E.85992
M73 P3 R55
G1 X153.002 Y135.145 E.6718
G1 X125.636 Y135.145 E.85804
M204 S1000
G1 X125.199 Y135.522 F10800
M204 S800
;TYPE:External perimeter
G1 F1200
G1 X125.199 Y113.342 E.69544
G1 X153.379 Y113.342 E.88356
G1 X153.379 Y135.522 E.69544
M73 P4 R55
M73 Q4 S56
G1 X125.259 Y135.522 E.88168
M204 S1000
G1 X125.318 Y135.14 F10800
;WIPE_START
G1 F8640
G1 X125.25 Y132.057 E-.8
;WIPE_END
G1 Z.6 F720
G1 X152.066 Y113.889 F10800
G1 Z.2 F720
G1 E.8 F2100
M204 S800
;TYPE:Solid infill
;WIDTH:0.421994
G1 F1200
G1 X152.663 Y114.486 E.02661
G1 X152.663 Y115.022 E.01689
G1 X151.7 Y114.059 E.04293
G1 X151.164 Y114.059 E.01689
G1 X152.663 Y115.558 E.06682
G1 X152.663 Y116.094 E.01689
G1 X150.628 Y114.059 E.09071
G1 X150.091 Y114.059 E.01693
G1 X152.663 Y116.63 E.11463
G1 X152.663 Y117.166 E.01689
G1 X149.555 Y114.059 E.13852
G1 X149.019 Y114.059 E.01689
G1 X152.663 Y117.703 E.16244
G1 X152.663 Y118.239 E.01689
G1 X148.483 Y114.059 E.18633
G1 X147.947 Y114.059 E.01689
G1 X152.663 Y118.775 E.21022
G1 X152.663 Y119.311 E.01689
G1 X147.411 Y114.059 E.23411
G1 X146.875 Y114.059 E.01689
G1 X152.663 Y119.847 E.25801
G1 X152.663 Y120.383 E.01689
G1 X146.339 Y114.059 E.2819
G1 X145.803 Y114.059 E.01689
G1 X152.663 Y120.919 E.30579
G1 X152.663 Y121.455 E.01689
G1 X145.267 Y114.059 E.32969
G1 X144.731 Y114.059 E.01689
G1 X152.663 Y121.991 E.35358
G1 X152.663 Y122.527 E.01689
G1 X144.194 Y114.059 E.37749
G1 X143.658 Y114.059 E.01689
G1 X152.663 Y123.063 E.40139
