; generated by PrusaSlicer 2.6.0+win64 on 2023-07-28 at 03:36:22 UTC


;
;
; 

; external perimeters extrusion width = 0.45mm
; perimeters extrusion width = 0.45mm
; infill extrusion width = 0.45mm
; solid infill extrusion width = 0.45mm
; top infill extrusion width = 0.40mm
; support material extrusion width = 0.35mm
; first layer extrusion width = 0.42mm

; external perimeters extrusion width = 0.45mm
; perimeters extrusion width = 0.45mm
; infill extrusion width = 0.45mm
; solid infill extrusion width = 0.45mm
; top infill extrusion width = 0.40mm
; support material extrusion width = 0.35mm
; first layer extrusion width = 0.42mm

M73 P0 R58
M73 Q0 S58
M201 X1000 Y1000 Z200 E5000 ; sets maximum accelerations, mm/sec^2
M203 X200 Y200 Z12 E120 ; sets maximum feedrates, mm / sec
M204 S1250 T1250 ; sets acceleration (S) and retract acceleration (R), mm/sec^2
M205 X8.00 Y8.00 Z0.40 E4.50 ; sets the jerk limits, mm/sec
M205 S0 T0 ; sets the minimum extruding and travel feed rate, mm/sec
;TYPE:Custom
M862.3 P "MK3S" ; printer model check
M862.1 P0.4 ; nozzle diameter check
M115 U3.12.2 ; tell printer latest fw version
G90 ; use absolute coordinates
M83 ; extruder relative mode
M104 S215 ; set extruder temp
M140 S60 ; set bed temp
M190 S60 ; wait for bed temp
M109 S215 ; wait for extruder temp
G28 W ; home all without mesh bed level
G80 ; mesh bed leveling

G1 Z0.2 F720
G1 Y-3 F1000 ; go outside print area
G92 E0
G1 X60 E9 F1000 ; intro line
G1 X100 E12.5 F1000 ; intro line

G92 E0
M221 S95

; Don't change E values below. Excessive value can damage the printer.
M907 E430 ; set extruder motor current
G21 ; set units to millimeters
G90 ; use absolute coordinates
M83 ; use relative distances for extrusion
M900 K0.05 ; Filament gcode LA 1.5
M900 K30 ; Filament gcode LA 1.0
M107
;LAYER_CHANGE
;Z:0.2
;HEIGHT:0.2
;BEFORE_LAYER_CHANGE
G92 E0.0
;0.2


G1 E-.8 F2100
M73 P0 R57
G1 Z.4 F720
;AFTER_LAYER_CHANGE
;0.2
G1 X126.729 Y85.892 F10800
G1 Z.2 F720
G1 E.8 F2100
M204 S800
;TYPE:Skirt/Brim
;WIDTH:0.42
G1 F1200
G1 X127.593 Y84.835 E.0428
G1 X128.924 Y84.427 E.04365
G1 X151.424 Y84.427 E.70547
G1 X152.204 Y84.559 E.0248
G1 X159.24 Y87.001 E.23352
G1 X160.655 Y88.333 E.06093
G1 X171.403 Y114.139 E.8765
G1 X171.586 Y115.053 E.02923
G1 X171.586 Y127.861 E.40159
G1 X171.195 Y129.168 E.04277
G1 X170.222 Y130.012 E.04039
G1 X156.958 Y136.261 E.45973
G1 X155.945 Y136.488 E.03255
G1 X126.945 Y136.488 E.90927
G1 X125.663 Y136.113 E.04188
G1 X115.899 Y129.863 E.36349
G1 X115.009 Y128.829 E.04278
G1 X114.804 Y127.861 E.03102
G1 X114.804 Y115.053 E.40159
G1 X114.986 Y114.141 E.02916
G1 X126.706 Y85.947 E.95734
M204 S1000
; printing object Enclosure - Door-1.STL id:0 copy 0
;WIPE_START
G1 F8640
G1 X127.593 Y84.835 E-.32844
G1 X128.924 Y84.427 E-.32145
G1 X129.574 Y84.427 E-.15011
;WIPE_END
G1 Z.6 F720
G1 X158.46 Y104.362 F10800
G1 Z.2 F720
G1 E.8 F2100
M204 S800
;TYPE:Support material
G1 F1200
G1 X151.904 Y104.362 E.20556
G1 X151.904 Y101.784 E.08083
G1 X153.657 Y101.784 E.05496
G1 X153.938 Y101.503 E.01246
G1 X153.938 Y92.105 E.29467
G1 X153.657 Y91.824 E.01246
G1 X151.904 Y91.824 E.05496
G1 X151.904 Y89.247 E.0808
G1 X158.46 Y89.247 E.20556
G1 X158.46 Y104.305 E.47213
M204 S1000
G1 X158.014 Y104.192 F10800
M204 S800
G1 F1200
G1 X158.014 Y89.586 E.45796
G1 X157.596 Y89.586 E.01311
G1 X157.596 Y104.022 E.45263
G1 X157.177 Y104.022 E.01314
G1 X157.177 Y89.586 E.45263
G1 X156.758 Y89.586 E.01314
G1 X156.758 Y104.022 E.45263
G1 X156.339 Y104.022 E.01314
G1 X156.339 Y89.586 E.45263
G1 X155.92 Y89.586 E.01314
G1 X155.92 Y104.022 E.45263
G1 X155.501 Y104.022 E.01314
G1 X155.501 Y89.586 E.45263
G1 X155.082 Y89.586 E.01314
G1 X155.082 Y104.022 E.45263
G1 X154.663 Y104.022 E.01314
G1 X154.663 Y89.586 E.45263
G1 X154.244 Y89.586 E.01314
G1 X154.244 Y104.022 E.45263
G1 X153.825 Y104.022 E.01314
G1 X153.825 Y102.096 E.06039
G1 X153.797 Y102.124 E.00124
G1 X153.406 Y102.124 E.01226
G1 X153.406 Y104.022 E.05951
G1 X152.987 Y104.022 E.01314
G1 X152.987 Y102.124 E.05951
G1 X152.568 Y102.124 E.01314
G1 X152.568 Y104.192 E.06484
M204 S1000
;WIPE_START
G1 F8640
G1 X152.568 Y102.124 E-.47751
G1 X152.987 Y102.124 E-.09675
G1 X152.987 Y103.102 E-.22574
;WIPE_END
G1 Z.6 F720
G1 X153.825 Y91.752 F10800
G1 Z.2 F720
G1 E.8 F2100
M204 S800
G1 F1200
G1 X153.825 Y89.586 E.06791
G1 X153.406 Y89.586 E.01314
G1 X153.406 Y91.485 E.05954
G1 X152.987 Y91.485 E.01314
G1 X152.987 Y89.586 E.05954
G1 X152.568 Y89.586 E.01314
G1 X152.568 Y91.655 E.06487
M204 S1000
;WIPE_START
G1 F8640
G1 X152.568 Y89.586 E-.47774
G1 X152.987 Y89.586 E-.09675
G1 X152.987 Y90.563 E-.22551
;WIPE_END
G1 Z.6 F720
G1 X151.119 Y100.54 F10800
G1 Z.2 F720
G1 E.8 F2100
M204 S800
;TYPE:Perimeter
;WIDTH:0.419999
G1 F1200
G1 X150.919 Y100.594 E.0065
G1 X150.712 Y100.802 E.0092
G1 X150.637 Y101.083 E.00912
G1 X150.637 Y106.017 E.1547
G1 X129.711 Y106.017 E.65612
M73 Q0 S57
G1 X129.711 Y87.591 E.57773
G1 X150.637 Y87.591 E.65612
G1 X150.637 Y92.526 E.15473
G1 X150.712 Y92.807 E.00912
G1 X150.919 Y93.015 E.0092
G1 X151.203 Y93.091 E.00922
G1 X152.671 Y93.091 E.04603
G1 X152.671 Y100.517 E.23284
G1 X151.177 Y100.524 E.04684
M204 S1000
G1 X151.203 Y100.894 F10800
M204 S800
;TYPE:External perimeter
G1 F1200
G1 X151.084 Y100.937 E.00397
G1 X151.014 Y101.083 E.00508
G1 X151.014 Y106.394 E.16652
G1 X129.334 Y106.394 E.67976
G1 X129.334 Y87.214 E.60137
M73 Q1 S57
G1 X151.014 Y87.214 E.67976
M73 P1 R57
G1 X151.014 Y92.526 E.16655
G1 X151.054 Y92.642 E.00385
G1 X151.203 Y92.714 E.00519
G1 X153.048 Y92.714 E.05785
G1 X153.048 Y100.894 E.25648
G1 X151.263 Y100.894 E.05597
M204 S1000
G1 X151.085 Y100.849 F10800
;WIPE_START
G1 F8640
G1 X151.084 Y100.937 E-.04251
G1 X151.014 Y101.083 E-.03739
G1 X151.014 Y104.202 E-.7201
;WIPE_END
G1 Z.6 F720
G1 X150.468 Y88.531 F10800
G1 Z.2 F720
G1 E.8 F2100
M204 S800
;TYPE:Solid infill
;WIDTH:0.423464
G1 F1200
G1 X149.868 Y87.931 E.02685
G1 X149.33 Y87.931 E.01702
G1 X150.298 Y88.899 E.04332
G1 X150.298 Y89.437 E.01702
G1 X148.791 Y87.931 E.06741
G1 X148.253 Y87.931 E.01702
G1 X150.298 Y89.975 E.09149
G1 X150.298 Y90.514 E.01706
G1 X147.715 Y87.931 E.11559
G1 X147.177 Y87.931 E.01702
G1 X150.298 Y91.052 E.13966
G1 X150.298 Y91.59 E.01702
G1 X146.639 Y87.931 E.16374
G1 X146.1 Y87.931 E.01706
G1 X150.468 Y92.298 E.19544
M204 S1000
;WIPE_START
G1 F8640
G1 X148.018 Y89.848 E-.8
;WIPE_END
G1 Z.6 F720
G1 X151.969 Y93.261 F10800
G1 Z.2 F720
G1 E.8 F2100
M204 S800
G1 F1200
G1 X152.331 Y93.623 E.0162
G1 X152.331 Y94.162 E.01706
G1 X151.431 Y93.261 E.0403
M204 S1000
;WIPE_START
G1 F8640
G1 X152.331 Y94.162 E-.29405
G1 X152.331 Y93.623 E-.12446
G1 X151.969 Y93.261 E-.11821
;WIPE_END
G1 E-.26328 F2100
G1 Z.6 F720
G1 X152.501 Y94.869 F10800
G1 Z.2 F720
G1 E.8 F2100
M204 S800
G1 F1200
G1 X145.562 Y87.931 E.31049
G1 X145.024 Y87.931 E.01702
G1 X152.331 Y95.238 E.32698
G1 X152.331 Y95.776 E.01702
G1 X144.486 Y87.931 E.35106
G1 X143.948 Y87.931 E.01702
G1 X152.331 Y96.314 E.37513
G1 X152.331 Y96.852 E.01702
G1 X143.41 Y87.931 E.39921
G1 X142.871 Y87.931 E.01706
G1 X152.331 Y97.391 E.42333
G1 X152.331 Y97.929 E.01702
G1 X142.333 Y87.931 E.4474
G1 X141.795 Y87.931 E.01702
G1 X152.331 Y98.467 E.47148
G1 X152.331 Y99.005 E.01702
G1 X141.257 Y87.931 E.49555
G1 X140.719 Y87.931 E.01702
G1 X152.331 Y99.543 E.51963
G1 X152.331 Y100.082 E.01706
G1 X140.181 Y87.931 E.54372
G1 X139.642 Y87.931 E.01706
G1 X151.89 Y100.178 E.54806
G1 X151.351 Y100.178 E.01706
G1 X139.104 Y87.931 E.54804
G1 X138.566 Y87.931 E.01702
G1 X150.877 Y100.242 E.55091
G1 X150.747 Y100.3 E.0045
G1 X150.553 Y100.456 E.00788
G1 X138.028 Y87.931 E.56048
G1 X137.49 Y87.931 E.01702
G1 X150.349 Y100.79 E.57543
G1 X150.298 Y101.069 E.00897
G1 X150.298 Y101.277 E.00658
G1 X136.952 Y87.931 E.59722
G1 X136.413 Y87.931 E.01706
G1 X150.298 Y101.815 E.62132
G1 X150.298 Y102.353 E.01702
G1 X135.875 Y87.931 E.64539
G1 X135.337 Y87.931 E.01702
G1 X150.298 Y102.892 E.66949
G1 X150.298 Y103.43 E.01702
G1 X134.799 Y87.931 E.69357
G1 X134.261 Y87.931 E.01702
G1 X150.298 Y103.968 E.71764
G1 X150.298 Y104.506 E.01702
G1 X133.723 Y87.931 E.74172
G1 X133.184 Y87.931 E.01706
G1 X150.298 Y105.044 E.76581
G1 X150.298 Y105.582 E.01702
G1 X132.646 Y87.931 E.78989
G1 X132.108 Y87.931 E.01702
G1 X149.855 Y105.678 E.79416
G1 X149.317 Y105.678 E.01702
M73 P1 R56
G1 X131.57 Y87.931 E.79416
G1 X131.032 Y87.931 E.01702
G1 X148.779 Y105.678 E.79416
G1 X148.241 Y105.678 E.01702
G1 X130.494 Y87.931 E.79416
G1 X130.051 Y87.931 E.01402
G1 X130.051 Y88.026 E.00301
G1 X147.702 Y105.678 E.78989
G1 X147.164 Y105.678 E.01702
M73 P2 R56
M73 Q2 S57
G1 X130.051 Y88.564 E.76581
G1 X130.051 Y89.102 E.01702
G1 X146.626 Y105.678 E.74174
G1 X146.088 Y105.678 E.01702
G1 X130.051 Y89.641 E.71764
G1 X130.051 Y90.179 E.01702
G1 X145.55 Y105.678 E.69357
G1 X145.012 Y105.678 E.01702
G1 X130.051 Y90.717 E.66949
G1 X130.051 Y91.255 E.01702
G1 X144.473 Y105.678 E.64539
G1 X143.935 Y105.678 E.01702
G1 X130.051 Y91.793 E.62132
G1 X130.051 Y92.332 E.01706
G1 X143.397 Y105.678 E.59722
G1 X142.859 Y105.678 E.01702
G1 X130.051 Y92.87 E.57315
G1 X130.051 Y93.408 E.01702
G1 X142.321 Y105.678 E.54907
G1 X141.783 Y105.678 E.01702
G1 X130.051 Y93.946 E.525
G1 X130.051 Y94.484 E.01702
G1 X141.244 Y105.678 E.5009
G1 X140.706 Y105.678 E.01702
G1 X130.051 Y95.022 E.47682
G1 X130.051 Y95.561 E.01706
G1 X140.168 Y105.678 E.45273
G1 X139.63 Y105.678 E.01702
G1 X130.051 Y96.099 E.42865
G1 X130.051 Y96.637 E.01702
G1 X139.092 Y105.678 E.40458
G1 X138.554 Y105.678 E.01702
G1 X130.051 Y97.175 E.3805
G1 X130.051 Y97.713 E.01702
G1 X138.015 Y105.678 E.3564
G1 X137.477 Y105.678 E.01702
G1 X130.051 Y98.251 E.33233
G1 X130.051 Y98.79 E.01706
G1 X136.939 Y105.678 E.30823
G1 X136.401 Y105.678 E.01702
G1 X130.051 Y99.328 E.28416
G1 X130.051 Y99.866 E.01702
G1 X135.863 Y105.678 E.26008
G1 X135.325 Y105.678 E.01702
G1 X130.051 Y100.404 E.23601
G1 X130.051 Y100.942 E.01702
G1 X134.786 Y105.678 E.21191
G1 X134.248 Y105.678 E.01702
M73 Q2 S56
G1 X130.051 Y101.48 E.18783
G1 X130.051 Y102.019 E.01706
G1 X133.71 Y105.678 E.16374
G1 X133.172 Y105.678 E.01702
G1 X130.051 Y102.557 E.13966
G1 X130.051 Y103.095 E.01702
G1 X132.634 Y105.678 E.11559
G1 X132.096 Y105.678 E.01702
G1 X130.051 Y103.633 E.09151
G1 X130.051 Y104.171 E.01702
G1 X131.557 Y105.678 E.06741
G1 X131.019 Y105.678 E.01702
G1 X130.051 Y104.709 E.04334
G1 X130.051 Y105.248 E.01706
G1 X130.651 Y105.847 E.02683
M204 S1000
; stop printing object Enclosure - Door-1.STL id:0 copy 0
; printing object Enclosure - Enclosure-1.STL id:1 copy 0
;WIPE_START
G1 F8640
G1 X130.051 Y105.248 E-.19576
G1 X130.051 Y104.709 E-.12446
G1 X131.019 Y105.678 E-.31626
G1 X131.557 Y105.678 E-.12423
G1 X131.437 Y105.558 E-.03929
;WIPE_END
G1 Z.6 F720
G1 X126.465 Y127.861 F10800
G1 Z.2 F720
G1 E.8 F2100
M204 S800
;TYPE:Support material
;WIDTH:0.42
G1 F1200
G1 X117.181 Y127.861 E.29109
G1 X117.181 Y115.053 E.40159
G1 X126.465 Y115.053 E.29109
G1 X126.465 Y127.805 E.39983
M204 S1000
G1 X126.017 Y127.691 F10800
M204 S800
G1 F1200
G1 X126.017 Y115.392 E.38563
G1 X125.598 Y115.392 E.01314
G1 X125.598 Y127.522 E.38033
G1 X125.179 Y127.522 E.01314
G1 X125.179 Y115.392 E.38033
G1 X124.76 Y115.392 E.01314
G1 X124.76 Y127.522 E.38033
G1 X124.341 Y127.522 E.01314
G1 X124.341 Y115.392 E.38033
G1 X123.922 Y115.392 E.01314
G1 X123.922 Y127.522 E.38033
G1 X123.503 Y127.522 E.01314
G1 X123.503 Y115.392 E.38033
G1 X123.084 Y115.392 E.01314
G1 X123.084 Y127.522 E.38033
G1 X122.665 Y127.522 E.01314
G1 X122.665 Y115.392 E.38033
G1 X122.246 Y115.392 E.01314
G1 X122.246 Y127.522 E.38033
G1 X121.827 Y127.522 E.01314
G1 X121.827 Y115.392 E.38033
G1 X121.408 Y115.392 E.01314
G1 X121.408 Y127.522 E.38033
G1 X120.989 Y127.522 E.01314
G1 X120.989 Y115.392 E.38033
G1 X120.57 Y115.392 E.01314
G1 X120.57 Y127.522 E.38033
G1 X120.151 Y127.522 E.01314
G1 X120.151 Y115.392 E.38033
G1 X119.732 Y115.392 E.01314
G1 X119.732 Y127.522 E.38033
G1 X119.313 Y127.522 E.01314
G1 X119.313 Y115.392 E.38033
G1 X118.894 Y115.392 E.01314
M73 P3 R56
M73 Q3 S56
G1 X118.894 Y127.522 E.38033
G1 X118.475 Y127.522 E.01314
G1 X118.475 Y115.392 E.38033
G1 X118.056 Y115.392 E.01314
G1 X118.056 Y127.522 E.38033
G1 X117.637 Y127.522 E.01314
G1 X117.637 Y115.223 E.38563
M204 S1000
;WIPE_START
G1 F8640
G1 X117.637 Y118.688 E-.8
;WIPE_END
G1 Z.6 F720
G1 X159.981 Y115.053 F10800
G1 Z.2 F720
G1 E.8 F2100
M204 S800
G1 F1200
G1 X169.209 Y115.053 E.28934
G1 X169.209 Y127.861 E.40159
G1 X159.981 Y127.861 E.28934
G1 X159.981 Y130.168 E.07233
G1 X156.425 Y130.168 E.1115
G1 X156.425 Y112.746 E.54625
G1 X159.981 Y112.746 E.1115
G1 X159.981 Y114.996 E.07055
M204 S1000
G1 X168.752 Y127.691 F10800
M204 S800
G1 F1200
G1 X168.752 Y115.392 E.38563
G1 X168.333 Y115.392 E.01314
G1 X168.333 Y127.522 E.38033
G1 X167.914 Y127.522 E.01314
G1 X167.914 Y115.392 E.38033
G1 X167.496 Y115.392 E.01311
G1 X167.496 Y127.522 E.38033
G1 X167.077 Y127.522 E.01314
G1 X167.077 Y115.392 E.38033
G1 X166.658 Y115.392 E.01314
G1 X166.658 Y127.522 E.38033
G1 X166.239 Y127.522 E.01314
G1 X166.239 Y115.392 E.38033
G1 X165.82 Y115.392 E.01314
G1 X165.82 Y127.522 E.38033
G1 X165.401 Y127.522 E.01314
G1 X165.401 Y115.392 E.38033
G1 X164.982 Y115.392 E.01314
G1 X164.982 Y127.522 E.38033
G1 X164.563 Y127.522 E.01314
G1 X164.563 Y115.392 E.38033
G1 X164.144 Y115.392 E.01314
G1 X164.144 Y127.522 E.38033
G1 X163.725 Y127.522 E.01314
G1 X163.725 Y115.392 E.38033
G1 X163.306 Y115.392 E.01314
G1 X163.306 Y127.522 E.38033
G1 X162.887 Y127.522 E.01314
G1 X162.887 Y115.392 E.38033
G1 X162.468 Y115.392 E.01314
G1 X162.468 Y127.522 E.38033
G1 X162.049 Y127.522 E.01314
G1 X162.049 Y115.392 E.38033
G1 X161.63 Y115.392 E.01314
G1 X161.63 Y127.522 E.38033
G1 X161.211 Y127.522 E.01314
G1 X161.211 Y115.392 E.38033
G1 X160.792 Y115.392 E.01314
G1 X160.792 Y127.522 E.38033
G1 X160.373 Y127.522 E.01314
G1 X160.373 Y115.392 E.38033
G1 X159.954 Y115.392 E.01314
M73 P3 R55
G1 X159.954 Y127.522 E.38033
G1 X159.641 Y127.522 E.00981
G1 X159.641 Y129.829 E.07233
G1 X159.535 Y129.829 E.00332
G1 X159.535 Y113.085 E.525
G1 X159.116 Y113.085 E.01314
G1 X159.116 Y129.829 E.525
G1 X158.697 Y129.829 E.01314
G1 X158.697 Y113.085 E.525
G1 X158.278 Y113.085 E.01314
G1 X158.278 Y129.829 E.525
G1 X157.859 Y129.829 E.01314
G1 X157.859 Y113.085 E.525
G1 X157.44 Y113.085 E.01314
G1 X157.44 Y129.829 E.525
G1 X157.021 Y129.829 E.01314
G1 X157.021 Y112.916 E.5303
M204 S1000
;WIPE_START
G1 F8640
G1 X157.021 Y116.381 E-.8
;WIPE_END
G1 Z.6 F720
G1 X127.732 Y133.324 F10800
G1 Z.2 F720
G1 E.8 F2100
M204 S800
;TYPE:Perimeter
;WIDTH:0.419999
G1 F1200
G1 X127.732 Y111.898 E.6718
G1 X155.158 Y111.898 E.85992
G1 X155.158 Y133.324 E.6718
G1 X127.792 Y133.324 E.85804
M204 S1000
G1 X127.355 Y133.701 F10800
M204 S800
;TYPE:External perimeter
G1 F1200
G1 X127.355 Y111.521 E.69544
G1 X155.535 Y111.521 E.88356
G1 X155.535 Y133.701 E.69544
M73 P4 R55
M73 Q4 S56
G1 X127.415 Y133.701 E.88168
M204 S1000
G1 X127.474 Y133.319 F10800
;WIPE_START
G1 F8640
G1 X127.406 Y130.236 E-.8
;WIPE_END
G1 Z.6 F720
G1 X154.222 Y112.067 F10800
G1 Z.2 F720
G1 E.8 F2100
M204 S800
;TYPE:Solid infill
;WIDTH:0.421994
G1 F1200
G1 X154.818 Y112.664 E.02659
G1 X154.818 Y113.2 E.01689
G1 X153.855 Y112.237 E.04293
G1 X153.319 Y112.237 E.01689
G1 X154.818 Y113.736 E.06682
G1 X154.818 Y114.272 E.01689
G1 X152.783 Y112.237 E.09071
G1 X152.247 Y112.237 E.01689
G1 X154.818 Y114.809 E.11463
G1 X154.818 Y115.345 E.01689
G1 X151.711 Y112.237 E.13852
G1 X151.175 Y112.237 E.01689
G1 X154.818 Y115.881 E.16241
G1 X154.818 Y116.417 E.01689
G1 X150.639 Y112.237 E.18631
G1 X150.103 Y112.237 E.01689
G1 X154.818 Y116.953 E.2102
G1 X154.818 Y117.489 E.01689
G1 X149.566 Y112.237 E.23411
G1 X149.03 Y112.237 E.01689
G1 X154.818 Y118.025 E.25801
G1 X154.818 Y118.561 E.01689
G1 X148.494 Y112.237 E.2819
G1 X147.958 Y112.237 E.01689
G1 X154.818 Y119.097 E.30579
G1 X154.818 Y119.633 E.01689
G1 X147.422 Y112.237 E.32969
G1 X146.886 Y112.237 E.01689
G1 X154.818 Y120.169 E.35358
G1 X154.818 Y120.706 E.01693
G1 X146.35 Y112.237 E.37749
G1 X145.814 Y112.237 E.01689
M73 Q4 S55
G1 X154.818 Y121.242 E.40139
