; generated by PrusaSlicer 2.6.0+win64 on 2023-07-19 at 18:55:18 UTC


;
;
; 

; external perimeters extrusion width = 0.45mm
; perimeters extrusion width = 0.45mm
; infill extrusion width = 0.45mm
; solid infill extrusion width = 0.45mm
; top infill extrusion width = 0.40mm
; support material extrusion width = 0.35mm
; first layer extrusion width = 0.42mm

; external perimeters extrusion width = 0.45mm
; perimeters extrusion width = 0.45mm
; infill extrusion width = 0.45mm
; solid infill extrusion width = 0.45mm
; top infill extrusion width = 0.40mm
; support material extrusion width = 0.35mm
; first layer extrusion width = 0.42mm

; external perimeters extrusion width = 0.45mm
; perimeters extrusion width = 0.45mm
; infill extrusion width = 0.45mm
; solid infill extrusion width = 0.45mm
; top infill extrusion width = 0.40mm
; support material extrusion width = 0.35mm
; first layer extrusion width = 0.42mm

; external perimeters extrusion width = 0.45mm
; perimeters extrusion width = 0.45mm
; infill extrusion width = 0.45mm
; solid infill extrusion width = 0.45mm
; top infill extrusion width = 0.40mm
; support material extrusion width = 0.35mm
; first layer extrusion width = 0.42mm

; external perimeters extrusion width = 0.45mm
; perimeters extrusion width = 0.45mm
; infill extrusion width = 0.45mm
; solid infill extrusion width = 0.45mm
; top infill extrusion width = 0.40mm
; support material extrusion width = 0.35mm
; first layer extrusion width = 0.42mm

; external perimeters extrusion width = 0.45mm
; perimeters extrusion width = 0.45mm
; infill extrusion width = 0.45mm
; solid infill extrusion width = 0.45mm
; top infill extrusion width = 0.40mm
; support material extrusion width = 0.35mm
; first layer extrusion width = 0.42mm

M73 P0 R88
M73 Q0 S89
M201 X1000 Y1000 Z200 E5000 ; sets maximum accelerations, mm/sec^2
M203 X200 Y200 Z12 E120 ; sets maximum feedrates, mm / sec
M204 S1250 T1250 ; sets acceleration (S) and retract acceleration (R), mm/sec^2
M205 X8.00 Y8.00 Z0.40 E4.50 ; sets the jerk limits, mm/sec
M205 S0 T0 ; sets the minimum extruding and travel feed rate, mm/sec
;TYPE:Custom
M862.3 P "MK3S" ; printer model check
M862.1 P0.4 ; nozzle diameter check
M115 U3.12.2 ; tell printer latest fw version
G90 ; use absolute coordinates
M83 ; extruder relative mode
M104 S215 ; set extruder temp
M140 S60 ; set bed temp
M190 S60 ; wait for bed temp
M109 S215 ; wait for extruder temp
G28 W ; home all without mesh bed level
G80 ; mesh bed leveling

G1 Z0.2 F720
G1 Y-3 F1000 ; go outside print area
G92 E0
G1 X60 E9 F1000 ; intro line
G1 X100 E12.5 F1000 ; intro line

G92 E0
M221 S95

; Don't change E values below. Excessive value can damage the printer.
M907 E430 ; set extruder motor current
G21 ; set units to millimeters
G90 ; use absolute coordinates
M83 ; use relative distances for extrusion
M900 K0.05 ; Filament gcode LA 1.5
M900 K30 ; Filament gcode LA 1.0
M107
;LAYER_CHANGE
;Z:0.2
;HEIGHT:0.2
;BEFORE_LAYER_CHANGE
G92 E0.0
;0.2


G1 E-.8 F2100
G1 Z.4 F720
;AFTER_LAYER_CHANGE
;0.2
G1 X81.64 Y97.505 F10800
G1 Z.2 F720
G1 E.8 F2100
M204 S800
;TYPE:Skirt/Brim
;WIDTH:0.42
G1 F1200
G1 X83.312 Y96.809 E.05679
G1 X91.142 Y96.783 E.24551
G1 X115.119 Y97.947 E.75267
G1 X184.003 Y109.657 E2.19079
G1 X184.638 Y109.86 E.0209
G1 X190.69 Y112.783 E.21073
G1 X193.949 Y114.516 E.11573
G1 X194.514 Y114.934 E.02204
G1 X194.625 Y115.044 E.0049
G1 X195.321 Y116.725 E.05705
G1 X195.321 Y127.248 E.32994
G1 X195.242 Y127.853 E.01913
G1 X189.861 Y148.3 E.66293
G1 X189.243 Y149.376 E.03891
G1 X186.255 Y152.363 E.13247
G1 X185.26 Y152.958 E.03635
G1 X151.98 Y162.982 E1.08978
G1 X151.294 Y163.083 E.02174
M73 Q0 S88
G1 X126.279 Y163.076 E.78433
G1 X78.506 Y159.234 E1.50273
G1 X73.679 Y157.92 E.15685
G1 X72.533 Y157.202 E.0424
G1 X71.837 Y155.521 E.05705
G1 X71.837 Y126.407 E.91285
G1 X71.909 Y125.825 E.01839
G1 X78.029 Y101.591 E.7837
G1 X78.653 Y100.492 E.03963
G1 X81.598 Y97.547 E.13059
M204 S1000
;WIPE_START
G1 F8640
G1 X83.312 Y96.809 E-.43089
G1 X84.911 Y96.804 E-.36911
;WIPE_END
G1 Z.6 F720
G1 X83.023 Y100.131 F10800
G1 Z.2 F720
G1 E.8 F2100
M204 S800
G1 F1200
G1 X83.526 Y99.854 E.018
G1 X84.566 Y99.541 E.03405
G1 X89.975 Y99.539 E.1696
G1 X90.893 Y99.827 E.03017
G1 X91.946 Y100.422 E.03792
G1 X92.891 Y101.358 E.0417
G1 X93.435 Y102.268 E.03324
G1 X93.749 Y103.18 E.03024
G1 X93.846 Y103.965 E.0248
G1 X94.034 Y105.199 E.03914
G1 X94.042 Y106.344 E.0359
G1 X129.392 Y106.348 E1.10837
G1 X130.558 Y106.59 E.03734
G1 X131.522 Y107.04 E.03336
G1 X131.972 Y107.405 E.01817
G1 X132.504 Y106.949 E.02197
G1 X133.383 Y106.492 E.03106
G1 X134.476 Y106.203 E.03545
G1 X136.839 Y106.199 E.07409
G1 X137.751 Y106.42 E.02942
G1 X138.586 Y106.795 E.0287
G1 X139.992 Y108.036 E.0588
G1 X140.674 Y109.265 E.04407
G1 X140.973 Y110.569 E.04195
G1 X140.978 Y127.919 E.544
G1 X140.41 Y129.78 E.06101
G1 X139.744 Y130.709 E.03584
G1 X139.216 Y131.193 E.02246
G1 X149.54 Y131.193 E.3237
G1 X150.901 Y131.498 E.04373
G1 X152.065 Y132.136 E.04162
G1 X153.067 Y133.148 E.04465
G1 X153.518 Y133.883 E.02704
G1 X153.951 Y135.277 E.04577
G1 X153.976 Y137.543 E.07105
G1 X155.049 Y138.526 E.04563
G1 X155.049 Y119.536 E.59542
G1 X155.66 Y117.587 E.06404
G1 X156.088 Y116.982 E.02324
G1 X156.695 Y116.346 E.02757
G1 X158.013 Y115.525 E.04869
G1 X159.443 Y115.169 E.04621
G1 X187.869 Y115.172 E.89128
G1 X189.193 Y115.479 E.04261
G1 X190.283 Y116.066 E.03882
G1 X191.074 Y116.788 E.03358
G1 X191.698 Y117.663 E.0337
G1 X192.083 Y118.59 E.03147
G1 X192.234 Y119.32 E.02337
G1 X192.278 Y122.972 E.11451
G1 X191.916 Y124.43 E.0471
G1 X191.49 Y125.246 E.02886
G1 X190.714 Y126.14 E.03712
G1 X189.636 Y126.89 E.04118
G1 X188.137 Y127.361 E.04927
G1 X187.276 Y127.388 E.02701
G1 X187.276 Y146.029 E.58448
G1 X186.665 Y147.978 E.06404
G1 X186.236 Y148.582 E.02323
G1 X185.629 Y149.219 E.02759
G1 X184.311 Y150.039 E.04867
G1 X182.882 Y150.396 E.04618
G1 X159.416 Y150.396 E.73576
G1 X157.467 Y149.785 E.06404
G1 X156.863 Y149.357 E.02321
G1 X155.985 Y148.543 E.03754
G1 X155.954 Y151.056 E.0788
G1 X155.683 Y151.926 E.02857
G1 X155.209 Y152.817 E.03164
G1 X154.171 Y153.918 E.04744
G1 X153.985 Y154.044 E.00704
G1 X153.958 Y156.298 E.07068
G1 X153.534 Y157.693 E.04571
G1 X152.994 Y158.557 E.03195
G1 X152.265 Y159.314 E.03295
G1 X151.205 Y159.986 E.03935
G1 X149.607 Y160.42 E.05192
G1 X128.141 Y160.42 E.67305
G1 X126.428 Y159.927 E.05589
M73 P0 R87
G1 X125.571 Y159.371 E.03203
G1 X124.82 Y158.622 E.03326
G1 X124.202 Y157.63 E.03665
G1 X123.768 Y156.032 E.05192
G1 X123.768 Y135.565 E.64173
G1 X124.217 Y133.952 E.0525
G1 X124.768 Y133.058 E.03293
G1 X125.533 Y132.271 E.03441
G1 X126.456 Y131.672 E.0345
G1 X128.157 Y131.193 E.05541
G1 X132.079 Y131.193 E.12297
G1 X131.379 Y130.464 E.03169
G1 X130.927 Y129.805 E.02506
G1 X130.386 Y128.15 E.05459
G1 X130.355 Y124.38 E.11821
G1 X129.325 Y124.571 E.03285
G1 X94.025 Y124.571 E1.10681
G1 X93.976 Y125.48 E.02854
G1 X93.906 Y126.035 E.01754
G1 X93.865 Y126.674 E.02008
G1 X93.395 Y128.142 E.04833
G1 X92.544 Y129.317 E.04549
G1 X91.653 Y130.04 E.03598
G1 X90.594 Y130.54 E.03672
G1 X88.645 Y130.89 E.06209
G1 X85.602 Y130.87 E.09541
G1 X83.524 Y130.414 E.0667
G1 X82.283 Y129.661 E.04551
G1 X81.593 Y128.943 E.03122
G1 X81.3 Y128.544 E.01552
G1 X80.662 Y126.983 E.05287
G1 X80.495 Y125.526 E.04598
G1 X80.442 Y124.603 E.02899
G1 X80.481 Y123.779 E.02586
G1 X80.616 Y122.566 E.03827
G1 X80.704 Y103.291 E.60436
G1 X81.042 Y102.301 E.0328
G1 X81.7 Y101.227 E.03949
G1 X82.69 Y100.315 E.0422
G1 X82.97 Y100.16 E.01003
M204 S1000
G1 X83.149 Y100.486 F10800
M204 S800
G1 F1200
G1 X83.656 Y100.208 E.01813
G1 X84.596 Y99.918 E.03084
G1 X89.891 Y99.908 E.16602
G1 X90.725 Y100.166 E.02737
G1 X91.738 Y100.738 E.03648
G1 X92.579 Y101.572 E.03714
G1 X93.101 Y102.444 E.03187
G1 X93.386 Y103.282 E.02775
G1 X93.473 Y104.016 E.02318
G1 X93.659 Y105.242 E.03888
G1 X93.667 Y106.791 E.04857
G1 X94.091 Y106.721 E.01347
G1 X129.373 Y106.725 E1.10624
G1 X130.418 Y106.941 E.03346
G1 X131.339 Y107.37 E.03186
G1 X131.977 Y107.903 E.02607
G1 X132.699 Y107.273 E.03004
G1 X133.538 Y106.837 E.02965
G1 X134.547 Y106.574 E.03269
G1 X136.815 Y106.576 E.07111
G1 X137.643 Y106.782 E.02675
G1 X138.404 Y107.127 E.0262
G1 X139.679 Y108.249 E.05325
G1 X140.313 Y109.378 E.0406
G1 X140.596 Y110.591 E.03905
G1 X140.601 Y127.89 E.5424
G1 X140.06 Y129.637 E.05734
G1 X139.453 Y130.469 E.03229
G1 X138.701 Y131.134 E.03148
G1 X138.427 Y131.288 E.00986
G1 X138.501 Y131.57 E.00914
G1 X149.519 Y131.57 E.34546
G1 X150.745 Y131.842 E.03938
G1 X151.817 Y132.421 E.0382
G1 X152.783 Y133.397 E.04306
G1 X153.183 Y134.058 E.02422
G1 X153.574 Y135.309 E.0411
G1 X153.601 Y137.757 E.07676
G1 X153.76 Y137.856 E.00587
G1 X154.606 Y138.633 E.03602
G1 X155.158 Y139.456 E.03107
G1 X155.426 Y139.374 E.00879
G1 X155.426 Y119.564 E.62113
G1 X155.985 Y117.78 E.05862
G1 X156.373 Y117.231 E.02108
G1 X156.917 Y116.651 E.02493
G1 X158.135 Y115.883 E.04515
G1 X159.466 Y115.546 E.04305
G1 X187.848 Y115.549 E.8899
G1 X189.038 Y115.824 E.03829
G1 X190.048 Y116.362 E.03588
G1 X190.78 Y117.025 E.03097
G1 X191.358 Y117.828 E.03102
G1 X191.728 Y118.717 E.03019
G1 X191.86 Y119.377 E.0211
G1 X191.9 Y122.952 E.1121
G1 X191.57 Y124.278 E.04284
G1 X191.19 Y125.016 E.02603
G1 X190.444 Y125.876 E.0357
G1 X189.496 Y126.539 E.03627
G1 X188.05 Y126.993 E.04752
G1 X186.898 Y127.016 E.03613
M73 P1 R87
G1 X186.898 Y146 E.59523
M73 Q1 S88
G1 X186.339 Y147.784 E.05862
G1 X185.952 Y148.334 E.02109
G1 X185.407 Y148.913 E.02493
G1 X184.189 Y149.681 E.04515
G1 X182.858 Y150.019 E.04306
G1 X159.444 Y150.019 E.73413
G1 X157.66 Y149.46 E.05862
G1 X157.11 Y149.071 E.02112
G1 X156.561 Y148.562 E.02347
G1 X155.883 Y147.516 E.03908
G1 X155.614 Y147.594 E.00878
G1 X155.586 Y150.972 E.10592
G1 X155.342 Y151.765 E.02601
G1 X154.888 Y152.617 E.03027
G1 X153.917 Y153.637 E.04416
G1 X153.61 Y153.828 E.01134
G1 X153.582 Y156.266 E.07645
G1 X153.182 Y157.557 E.04238
G1 X152.687 Y158.338 E.02899
G1 X152.01 Y159.035 E.03047
G1 X151.077 Y159.63 E.0347
G1 X149.582 Y160.043 E.04863
G1 X128.168 Y160.043 E.67142
G1 X126.609 Y159.594 E.05087
G1 X125.822 Y159.089 E.02932
G1 X125.127 Y158.402 E.03064
G1 X124.558 Y157.502 E.03339
G1 X124.145 Y156.006 E.04866
G1 X124.145 Y135.592 E.64007
G1 X124.572 Y134.081 E.04923
G1 X125.076 Y133.276 E.02978
G1 X125.787 Y132.55 E.03186
G1 X126.636 Y132.005 E.03163
G1 X128.183 Y131.57 E.05039
G1 X132.887 Y131.57 E.14749
G1 X132.966 Y131.297 E.00891
G1 X132.304 Y130.88 E.02453
G1 X131.681 Y130.237 E.02807
G1 X131.253 Y129.614 E.0237
G1 X130.753 Y128.063 E.0511
G1 X130.729 Y123.843 E.13232
G1 X130.365 Y123.993 E.01234
G1 X129.307 Y124.194 E.03377
G1 X93.998 Y124.194 E1.10709
G1 X93.626 Y124.115 E.01192
G1 X93.648 Y124.553 E.01375
G1 X93.6 Y125.453 E.02826
G1 X93.531 Y125.999 E.01726
G1 X93.49 Y126.626 E.0197
G1 X93.046 Y127.996 E.04515
G1 X92.255 Y129.073 E.0419
G1 X91.436 Y129.731 E.03294
G1 X90.457 Y130.187 E.03386
G1 X88.631 Y130.513 E.05816
G1 X85.625 Y130.493 E.09425
G1 X83.636 Y130.052 E.06388
G1 X82.538 Y129.382 E.04033
G1 X81.874 Y128.691 E.03005
G1 X81.618 Y128.34 E.01362
G1 X81.034 Y126.914 E.04832
G1 X80.87 Y125.488 E.04501
G1 X80.819 Y124.592 E.02814
G1 X80.857 Y123.805 E.0247
G1 X80.985 Y122.778 E.03245
G1 X80.993 Y122.568 E.00659
G1 X81.071 Y103.383 E.60154
G1 X81.376 Y102.478 E.02994
G1 X81.975 Y101.486 E.03633
G1 X82.929 Y100.608 E.04065
G1 X83.097 Y100.515 E.00602
M204 S1000
G1 X83.275 Y100.842 F10800
M204 S800
G1 F1200
G1 X83.788 Y100.561 E.01834
G1 X84.627 Y100.295 E.0276
G1 X89.809 Y100.277 E.16248
G1 X90.56 Y100.505 E.02461
G1 X91.491 Y101.024 E.03342
G1 X92.296 Y101.823 E.03556
G1 X92.767 Y102.619 E.029
G1 X93.013 Y103.346 E.02406
G1 X93.099 Y104.066 E.02274
G1 X93.284 Y105.285 E.03866
G1 X93.291 Y107.244 E.06142
G1 X94.109 Y107.098 E.02605
G1 X129.354 Y107.102 E1.10508
G1 X130.279 Y107.292 E.02961
G1 X131.156 Y107.701 E.03034
G1 X131.982 Y108.405 E.03403
G1 X132.894 Y107.597 E.0382
G1 X133.693 Y107.181 E.02824
G1 X134.572 Y106.951 E.02849
G1 X136.748 Y106.948 E.06823
G1 X137.504 Y107.132 E.0244
G1 X138.223 Y107.459 E.02477
G1 X139.368 Y108.463 E.04775
G1 X139.953 Y109.492 E.03711
G1 X140.219 Y110.614 E.03615
G1 X140.223 Y127.862 E.5408
G1 X139.736 Y129.442 E.05184
G1 X139.187 Y130.2 E.02935
G1 X138.47 Y130.835 E.03003
G1 X137.635 Y131.275 E.02959
G1 X136.763 Y131.504 E.02827
G1 X134.65 Y131.518 E.06625
G1 X133.559 Y131.219 E.03547
G1 X132.558 Y130.6 E.0369
G1 X131.963 Y129.986 E.02681
G1 X131.581 Y129.425 E.02128
G1 X131.122 Y127.977 E.04763
G1 X131.105 Y123.241 E.14849
G1 X130.267 Y123.628 E.02894
G1 X129.289 Y123.817 E.03123
G1 X94.025 Y123.817 E1.10568
G1 X93.22 Y123.615 E.02602
G1 X93.271 Y124.544 E.02917
G1 X93.224 Y125.426 E.02769
G1 X93.155 Y125.962 E.01694
G1 X93.115 Y126.579 E.01939
G1 X92.723 Y127.799 E.04018
G1 X91.998 Y128.797 E.03868
G1 X91.255 Y129.399 E.02998
G1 X90.32 Y129.835 E.03235
G1 X88.616 Y130.136 E.05425
G1 X85.685 Y130.121 E.0919
G1 X83.804 Y129.713 E.06035
G1 X82.793 Y129.103 E.03702
G1 X82.155 Y128.439 E.02887
G1 X81.937 Y128.138 E.01165
G1 X81.406 Y126.845 E.04383
G1 X81.245 Y125.451 E.044
G1 X81.196 Y124.581 E.02732
G1 X81.233 Y123.831 E.02354
G1 X81.361 Y122.81 E.03226
G1 X81.37 Y122.576 E.00734
G1 X81.438 Y103.472 E.599
G1 X81.71 Y102.654 E.02703
G1 X82.284 Y101.705 E.03477
G1 X83.165 Y100.902 E.03738
G1 X83.223 Y100.871 E.00206
M204 S1000
G1 X83.4 Y101.198 F10800
M204 S800
G1 F1200
G1 X83.923 Y100.914 E.01866
G1 X84.659 Y100.672 E.02429
G1 X89.728 Y100.646 E.15894
G1 X90.397 Y100.846 E.02189
G1 X91.245 Y101.311 E.03032
G1 X92.012 Y102.073 E.0339
G1 X92.431 Y102.792 E.02609
G1 X92.641 Y103.41 E.02047
G1 X92.725 Y104.117 E.02232
G1 X92.909 Y105.328 E.03841
G1 X92.916 Y107.794 E.07732
G1 X93.306 Y107.626 E.01331
G1 X94.127 Y107.475 E.02617
G1 X129.334 Y107.479 E1.10389
G1 X130.179 Y107.656 E.02707
M73 Q1 S87
G1 X130.97 Y108.03 E.02743
G1 X131.778 Y108.728 E.03348
G1 X132.023 Y109.072 E.01324
G1 X132.374 Y108.561 E.01944
G1 X133.089 Y107.92 E.03011
G1 X133.847 Y107.526 E.02679
G1 X134.642 Y107.322 E.02573
G1 X136.681 Y107.32 E.06393
G1 X137.396 Y107.494 E.02307
G1 X138.041 Y107.79 E.02225
G1 X139.057 Y108.679 E.04233
G1 X139.593 Y109.608 E.03363
G1 X139.842 Y110.636 E.03316
G1 X139.846 Y127.834 E.53923
G1 X139.411 Y129.247 E.04636
G1 X138.921 Y129.932 E.02641
G1 X138.238 Y130.537 E.02861
G1 X137.481 Y130.93 E.02674
G1 X136.692 Y131.133 E.02554
G1 X134.724 Y131.148 E.06171
G1 X133.686 Y130.863 E.03375
G1 X132.779 Y130.294 E.03357
G1 X132.247 Y129.738 E.02413
G1 X131.909 Y129.238 E.01892
G1 X131.49 Y127.892 E.0442
G1 X131.481 Y122.464 E.17019
G1 X130.968 Y122.886 E.02083
G1 X130.17 Y123.263 E.02767
G1 X129.27 Y123.44 E.02876
G1 X94.05 Y123.44 E1.1043
G1 X92.764 Y123.103 E.04168
G1 X92.851 Y123.784 E.02153
G1 X92.894 Y124.534 E.02355
G1 X92.848 Y125.399 E.02716
G1 X92.78 Y125.926 E.01666
G1 X92.741 Y126.531 E.01901
G1 X92.374 Y127.653 E.03701
G1 X91.709 Y128.553 E.03509
G1 X91.073 Y129.068 E.02566
G1 X90.229 Y129.469 E.0293
G1 X88.6 Y129.759 E.05188
G1 X85.706 Y129.744 E.09074
G1 X83.97 Y129.373 E.05566
G1 X83.047 Y128.823 E.03369
G1 X82.437 Y128.188 E.02761
G1 X82.257 Y127.937 E.00968
G1 X81.765 Y126.727 E.04096
G1 X81.62 Y125.415 E.04139
G1 X81.573 Y124.589 E.02594
G1 X81.609 Y123.857 E.02298
G1 X81.737 Y122.841 E.03211
G1 X81.748 Y122.585 E.00803
G1 X81.806 Y103.561 E.59649
G1 X82.044 Y102.831 E.02407
G1 X82.592 Y101.924 E.03323
G1 X83.356 Y101.238 E.03219
M204 S1000
G1 X83.605 Y101.52 F10800
M204 S800
G1 F1200
G1 X84.06 Y101.265 E.01635
G1 X84.693 Y101.049 E.02097
G1 X89.65 Y101.016 E.15543
G1 X90.237 Y101.188 E.01918
G1 X90.999 Y101.598 E.02713
G1 X91.728 Y102.322 E.03221
G1 X92.095 Y102.963 E.02316
G1 X92.269 Y103.474 E.01693
G1 X92.351 Y104.167 E.02188
G1 X92.534 Y105.37 E.03815
G1 X92.538 Y107.604 E.07005
G1 X92.459 Y108.442 E.02639
G1 X93.404 Y107.991 E.03283
G1 X94.145 Y107.852 E.02364
G1 X129.314 Y107.856 E1.1027
G1 X130.077 Y108.02 E.02447
G1 X130.783 Y108.359 E.02456
G1 X131.507 Y108.992 E.03015
G1 X132.017 Y109.77 E.02917
G1 X132.646 Y108.823 E.03565
G1 X133.287 Y108.242 E.02713
