; generated by PrusaSlicer 2.6.0+win64 on 2023-07-28 at 20:39:45 UTC


;
;
; 

; external perimeters extrusion width = 0.45mm
; perimeters extrusion width = 0.45mm
; infill extrusion width = 0.45mm
; solid infill extrusion width = 0.45mm
; top infill extrusion width = 0.40mm
; first layer extrusion width = 0.42mm

M73 P0 R47
M73 Q0 S48
M201 X1000 Y1000 Z200 E5000 ; sets maximum accelerations, mm/sec^2
M203 X200 Y200 Z12 E120 ; sets maximum feedrates, mm / sec
M204 S1250 T1250 ; sets acceleration (S) and retract acceleration (R), mm/sec^2
M205 X8.00 Y8.00 Z0.40 E4.50 ; sets the jerk limits, mm/sec
M205 S0 T0 ; sets the minimum extruding and travel feed rate, mm/sec
;TYPE:Custom
M862.3 P "MK3S" ; printer model check
M862.1 P0.4 ; nozzle diameter check
M115 U3.12.2 ; tell printer latest fw version
G90 ; use absolute coordinates
M83 ; extruder relative mode
M104 S215 ; set extruder temp
M140 S60 ; set bed temp
M190 S60 ; wait for bed temp
M109 S215 ; wait for extruder temp
G28 W ; home all without mesh bed level
G80 ; mesh bed leveling

G1 Z0.2 F720
G1 Y-3 F1000 ; go outside print area
G92 E0
G1 X60 E9 F1000 ; intro line
G1 X100 E12.5 F1000 ; intro line

G92 E0
M221 S95

; Don't change E values below. Excessive value can damage the printer.
M907 E430 ; set extruder motor current
G21 ; set units to millimeters
G90 ; use absolute coordinates
M83 ; use relative distances for extrusion
M900 K0.05 ; Filament gcode LA 1.5
M900 K30 ; Filament gcode LA 1.0
M107
;LAYER_CHANGE
;Z:0.2
;HEIGHT:0.2
;BEFORE_LAYER_CHANGE
G92 E0.0
;0.2


G1 E-.8 F2100
G1 Z.4 F720
;AFTER_LAYER_CHANGE
;0.2
G1 X78.015 Y67.693 F10800
G1 Z.2 F720
G1 E.8 F2100
M204 S800
;TYPE:Skirt/Brim
;WIDTH:0.42
G1 F1200
G1 X79.06 Y66.817 E.04275
G1 X80 Y66.623 E.03009
G1 X170 Y66.623 E2.82189
G1 X171.307 Y67.015 E.04278
G1 X172.183 Y68.06 E.04275
G1 X172.377 Y69 E.03009
G1 X172.377 Y141 E2.25751
G1 X171.985 Y142.307 E.04278
G1 X170.94 Y143.183 E.04275
G1 X170 Y143.377 E.03009
G1 X80 Y143.377 E2.82189
G1 X78.693 Y142.985 E.04278
G1 X77.817 Y141.94 E.04275
G1 X77.623 Y141 E.03009
G1 X77.623 Y69 E2.25751
G1 X77.997 Y67.75 E.04091
M204 S1000
; printing object Marco_up.STL id:0 copy 0
;WIPE_START
M73 Q0 S47
G1 F8640
G1 X79.06 Y66.817 E-.32658
G1 X80 Y66.623 E-.22162
G1 X81.091 Y66.623 E-.2518
;WIPE_END
G1 Z.6 F720
G1 X169.202 Y138.187 F10800
G1 Z.2 F720
G1 E.8 F2100
M204 S800
;TYPE:Perimeter
;WIDTH:0.463035
G1 F1200
G1 X169.213 Y138.457 E.00944
;WIDTH:0.419999
G1 X169.213 Y140.213 E.05506
G1 X167.457 Y140.213 E.05506
;WIDTH:0.463036
G1 X166.937 Y140.191 E.01818
G1 X166.432 Y140.2 E.01764
;WIDTH:0.445439
G1 X165.692 Y140.213 E.02477
;WIDTH:0.419999
G1 X80.787 Y140.213 E2.66213
G1 X80.787 Y125.787 E.45232
M73 P1 R47
M73 Q1 S47
G1 X85.213 Y125.787 E.13877
G1 X85.213 Y135.221 E.2958
G1 X85.293 Y135.512 E.00946
G1 X85.488 Y135.707 E.00865
G1 X85.779 Y135.787 E.00946
G1 X164.221 Y135.787 E2.45949
;WIDTH:0.42461
G1 X164.536 Y135.694 E.01042
;WIDTH:0.426613
G1 X164.695 Y135.536 E.00715
G1 X164.787 Y135.221 E.01047
;WIDTH:0.419999
G1 X164.787 Y74.779 E1.89511
G1 X164.707 Y74.488 E.00946
G1 X164.512 Y74.293 E.00865
G1 X164.221 Y74.213 E.00946
G1 X85.779 Y74.213 E2.45949
;WIDTH:0.426611
G1 X85.464 Y74.305 E.01047
G1 X85.306 Y74.464 E.00715
;WIDTH:0.424613
G1 X85.213 Y74.779 E.01042
;WIDTH:0.419999
G1 X85.213 Y76.213 E.04496
G1 X80.787 Y76.213 E.13877
G1 X80.787 Y73.457 E.08641
;WIDTH:0.463038
M73 P1 R46
G1 X80.809 Y72.937 E.01818
G1 X80.8 Y72.432 E.01764
;WIDTH:0.445442
G1 X80.787 Y71.692 E.02477
;WIDTH:0.419999
G1 X80.787 Y69.787 E.05973
G1 X82.762 Y69.787 E.06192
;WIDTH:0.451012
G1 X83.338 Y69.803 E.01955
;WIDTH:0.458079
G1 X84.457 Y69.787 E.03863
;WIDTH:0.419999
G1 X169.213 Y69.787 E2.65746
G1 X169.213 Y72.477 E.08434
G1 X169.213 Y136.692 E2.01341
;WIDTH:0.445441
G1 X169.2 Y137.432 E.02477
;WIDTH:0.463035
G1 X169.199 Y138.127 E.02428
M204 S1000
;WIPE_START
G1 F8640
G1 X169.213 Y138.457 E-.07627
G1 X169.213 Y140.213 E-.40547
G1 X167.835 Y140.213 E-.31826
;WIPE_END
G1 Z.6 F720
G1 X85.59 Y74.779 F10800
G1 Z.2 F720
G1 E.8 F2100
M204 S800
;TYPE:External perimeter
;WIDTH:0.419999
G1 F1200
G1 X85.59 Y76.59 E.05678
G1 X80.41 Y76.59 E.16241
G1 X80.41 Y69.41 E.22512
G1 X169.59 Y69.41 E2.79617
G1 X169.59 Y140.59 E2.2318
G1 X80.41 Y140.59 E2.79617
M73 P2 R46
M73 Q2 S47
G1 X80.41 Y125.41 E.47596
G1 X85.59 Y125.41 E.16241
G1 X85.59 Y135.221 E.30762
G1 X85.645 Y135.355 E.00454
G1 X85.779 Y135.41 E.00454
G1 X164.221 Y135.41 E2.45949
G1 X164.355 Y135.355 E.00454
G1 X164.41 Y135.221 E.00454
G1 X164.41 Y74.779 E1.89511
G1 X164.355 Y74.645 E.00454
G1 X164.221 Y74.59 E.00454
G1 X85.779 Y74.59 E2.45949
G1 X85.645 Y74.645 E.00454
G1 X85.613 Y74.723 E.00264
M204 S1000
G1 X85.204 Y74.882 F10800
;WIPE_START
G1 F8640
G1 X85.59 Y76.59 E-.43113
G1 X83.992 Y76.59 E-.36887
;WIPE_END
G1 Z.6 F720
G1 X168.623 Y138.299 F10800
G1 Z.2 F720
G1 E.8 F2100
M204 S800
;TYPE:Perimeter
;WIDTH:0.455395
G1 F1200
G1 X168.504 Y138.6 E.0111
;WIDTH:0.419999
G1 X168.219 Y139.007 E.01558
G1 X167.931 Y139.283 E.01251
G1 X167.6 Y139.504 E.01248
;WIDTH:0.455397
G1 X166.95 Y139.76 E.02396
G1 X166.45 Y139.798 E.0172
;WIDTH:0.445439
G1 X166.051 Y139.755 E.01343
;WIDTH:0.445081
G1 X165.4 Y139.504 E.02333
;WIDTH:0.419999
G1 X164.993 Y139.219 E.01558
G1 X164.717 Y138.932 E.01248
G1 X164.496 Y138.6 E.0125
G1 X164.335 Y138.235 E.01251
G1 X164.237 Y137.807 E.01377
G1 X164.214 Y137.451 E.01119
G1 X164.258 Y137.055 E.01249
G1 X164.369 Y136.672 E.0125
G1 X164.545 Y136.314 E.01251
;WIDTH:0.42461
G1 X164.779 Y135.991 E.01266
G1 X165.067 Y135.716 E.01264
;WIDTH:0.424344
G1 X165.4 Y135.496 E.01266
;WIDTH:0.419999
G1 X165.81 Y135.325 E.01393
G1 X166.373 Y135.223 E.01794
G1 X166.945 Y135.257 E.01797
G1 X167.328 Y135.369 E.01251
G1 X167.686 Y135.545 E.01251
G1 X168.007 Y135.781 E.01249
G1 X168.283 Y136.069 E.01251
G1 X168.504 Y136.4 E.01248
;WIDTH:0.445079
G1 X168.755 Y137.051 E.02333
;WIDTH:0.445441
G1 X168.798 Y137.55 E.01676
;WIDTH:0.455395
G1 X168.76 Y137.95 E.01378
G1 X168.645 Y138.243 E.0108
M204 S1000
G1 X168.184 Y138.389 F10800
M204 S800
;TYPE:External perimeter
;WIDTH:0.419998
G1 F1200
G1 X168.146 Y138.469 E.00278
G1 X167.847 Y138.847 E.01511
G1 X167.441 Y139.162 E.01611
G1 X167.138 Y139.301 E.01045
G1 X166.816 Y139.384 E.01043
G1 X166.484 Y139.41 E.01044
G1 X166.152 Y139.378 E.01046
G1 X165.831 Y139.289 E.01044
G1 X165.531 Y139.146 E.01042
G1 X165.26 Y138.953 E.01043
G1 X165.026 Y138.715 E.01046
G1 X164.838 Y138.441 E.01042
G1 X164.699 Y138.138 E.01045
G1 X164.612 Y137.774 E.01173
G1 X164.59 Y137.484 E.00912
G1 X164.622 Y137.152 E.01046
G1 X164.711 Y136.831 E.01044
G1 X164.854 Y136.531 E.01042
G1 X165.047 Y136.26 E.01043
G1 X165.285 Y136.026 E.01046
G1 X165.559 Y135.838 E.01042
G1 X165.877 Y135.696 E.01092
G1 X166.44 Y135.594 E.01794
G1 X166.848 Y135.622 E.01282
G1 X167.169 Y135.711 E.01044
G1 X167.469 Y135.854 E.01042
G1 X167.74 Y136.047 E.01043
G1 X167.974 Y136.285 E.01046
G1 X168.162 Y136.559 E.01042
G1 X168.301 Y136.862 E.01045
G1 X168.384 Y137.184 E.01043
G1 X168.41 Y137.516 E.01044
G1 X168.378 Y137.848 E.01046
G1 X168.289 Y138.169 E.01044
G1 X168.21 Y138.335 E.00576
M204 S1000
G1 X168.237 Y138.461 F10800
;WIPE_START
G1 F8640
G1 X168.146 Y138.469 E-.03429
G1 X167.847 Y138.847 E-.11129
G1 X167.441 Y139.162 E-.11865
G1 X167.138 Y139.301 E-.07697
G1 X166.816 Y139.384 E-.07678
G1 X166.484 Y139.41 E-.07689
G1 X166.152 Y139.378 E-.07701
G1 X165.831 Y139.289 E-.07692
G1 X165.531 Y139.146 E-.07674
G1 X165.268 Y138.959 E-.07446
;WIPE_END
G1 Z.6 F720
G1 X83.12 Y74.747 F10800
G1 Z.2 F720
M73 Q2 S46
G1 E.8 F2100
M204 S800
;TYPE:Perimeter
;WIDTH:0.419999
G1 F1200
G1 X82.672 Y74.631 E.01451
G1 X82.314 Y74.455 E.01251
G1 X81.993 Y74.219 E.01249
G1 X81.717 Y73.932 E.01248
G1 X81.496 Y73.6 E.0125
;WIDTH:0.455398
G1 X81.24 Y72.95 E.02396
G1 X81.202 Y72.45 E.0172
;WIDTH:0.445442
G1 X81.245 Y72.051 E.01343
;WIDTH:0.445082
G1 X81.496 Y71.4 E.02333
;WIDTH:0.419999
G1 X81.781 Y70.993 E.01558
G1 X82.069 Y70.717 E.01251
G1 X82.4 Y70.496 E.01248
G1 X82.81 Y70.325 E.01393
;WIDTH:0.450713
G1 X83.371 Y70.208 E.01943
;WIDTH:0.470733
G1 X83.952 Y70.233 E.02069
G1 X84.276 Y70.364 E.01243
;WIDTH:0.445366
G1 X84.6 Y70.496 E.01171
;WIDTH:0.419999
G1 X85.007 Y70.781 E.01558
G1 X85.283 Y71.069 E.01251
G1 X85.504 Y71.4 E.01248
G1 X85.665 Y71.765 E.01251
G1 X85.763 Y72.193 E.01377
G1 X85.786 Y72.549 E.01119
G1 X85.742 Y72.945 E.01249
G1 X85.631 Y73.328 E.0125
G1 X85.455 Y73.686 E.01251
G1 X85.113 Y74.113 E.01715
G1 X84.686 Y74.455 E.01715
G1 X84.23 Y74.666 E.01575
G1 X83.598 Y74.779 E.02013
G1 X83.18 Y74.751 E.01314
M204 S1000
G1 X82.977 Y74.33 F10800
M204 S800
;TYPE:External perimeter
G1 F1200
G1 X82.831 Y74.289 E.00475
G1 X82.531 Y74.146 E.01042
G1 X82.26 Y73.953 E.01043
G1 X82.026 Y73.715 E.01046
G1 X81.838 Y73.441 E.01042
G1 X81.699 Y73.138 E.01045
G1 X81.616 Y72.816 E.01043
G1 X81.59 Y72.484 E.01044
G1 X81.622 Y72.152 E.01046
G1 X81.711 Y71.831 E.01044
G1 X81.854 Y71.531 E.01042
G1 X82.153 Y71.153 E.01511
G1 X82.559 Y70.838 E.01611
G1 X82.877 Y70.696 E.01092
G1 X83.441 Y70.594 E.01797
G1 X83.848 Y70.622 E.01279
G1 X84.169 Y70.711 E.01044
G1 X84.469 Y70.854 E.01042
G1 X84.74 Y71.047 E.01043
G1 X84.974 Y71.285 E.01046
G1 X85.162 Y71.559 E.01042
G1 X85.301 Y71.862 E.01045
G1 X85.388 Y72.226 E.01173
G1 X85.41 Y72.516 E.00912
G1 X85.378 Y72.848 E.01046
G1 X85.289 Y73.169 E.01044
G1 X85.146 Y73.469 E.01042
G1 X84.847 Y73.847 E.01511
G1 X84.441 Y74.162 E.01611
G1 X84.122 Y74.304 E.01095
G1 X83.533 Y74.408 E.01875
G1 X83.152 Y74.378 E.01198
G1 X83.035 Y74.346 E.0038
M204 S1000
G1 X82.874 Y74.441 F10800
;WIPE_START
G1 F8640
G1 X82.831 Y74.289 E-.04891
G1 X82.531 Y74.146 E-.07674
G1 X82.26 Y73.953 E-.07682
G1 X82.026 Y73.715 E-.07707
G1 X81.838 Y73.441 E-.07673
G1 X81.699 Y73.138 E-.07697
G1 X81.616 Y72.816 E-.07678
G1 X81.59 Y72.484 E-.07689
G1 X81.622 Y72.152 E-.07701
G1 X81.711 Y71.831 E-.07692
G1 X81.821 Y71.6 E-.05916
;WIPE_END
G1 Z.6 F720
G1 X84.692 Y74.643 F10800
G1 Z.2 F720
G1 E.8 F2100
M204 S800
;TYPE:Solid infill
;WIDTH:0.427975
G1 F1200
G1 X84.875 Y74.826 E.00829
G1 X84.874 Y75.37 E.01742
G1 X84.451 Y74.946 E.01918
G1 X84.255 Y75.008 E.00658
G1 X84.008 Y75.048 E.00801
G1 X84.833 Y75.874 E.03738
G1 X84.289 Y75.874 E.01742
G1 X83.538 Y75.123 E.034
G1 X83.111 Y75.097 E.0137
G1 X82.922 Y75.051 E.00623
G1 X83.744 Y75.874 E.03724
G1 X83.2 Y75.874 E.01742
G1 X81.126 Y73.8 E.09391
G1 X81.126 Y74.345 E.01745
G1 X82.655 Y75.874 E.06923
G1 X82.111 Y75.874 E.01742
G1 X81.126 Y74.889 E.0446
G1 X81.126 Y75.434 E.01745
G1 X81.736 Y76.043 E.0276
M204 S1000
;WIPE_START
G1 F8640
G1 X81.126 Y75.434 E-.19903
G1 X81.126 Y74.889 E-.12584
G1 X82.111 Y75.874 E-.32165
G1 X82.655 Y75.874 E-.12561
G1 X82.57 Y75.789 E-.02787
;WIPE_END
G1 Z.6 F720
G1 X81.837 Y69.957 F10800
G1 Z.2 F720
G1 E.8 F2100
M204 S800
;WIDTH:0.456631
G1 F1200
G1 X82.137 Y70.257 E.01459
G1 X81.8 Y70.504 E.01437
G1 X81.422 Y70.126 E.01839
G1 X81.126 Y70.126 E.01018
G1 X81.126 Y70.416 E.00998
G1 X81.509 Y70.798 E.01861
G1 X81.444 Y70.866 E.00324
G1 X81.264 Y71.139 E.01125
G1 X80.957 Y70.832 E.01494
M204 S1000
;WIPE_START
G1 F8640
G1 X81.264 Y71.139 E-.10025
G1 X81.444 Y70.866 E-.07551
G1 X81.509 Y70.798 E-.02172
G1 X81.126 Y70.416 E-.1249
G1 X81.126 Y70.126 E-.06696
G1 X81.422 Y70.126 E-.06835
G1 X81.8 Y70.504 E-.12343
G1 X82.137 Y70.257 E-.09648
G1 X81.837 Y69.957 E-.09796
;WIPE_END
G1 E-.02444 F2100
G1 Z.6 F720
G1 X169.043 Y70.724 F10800
G1 Z.2 F720
G1 E.8 F2100
M204 S800
;WIDTH:0.422233
G1 F1200
G1 X168.446 Y70.126 E.02665
G1 X167.909 Y70.126 E.01694
G1 X168.874 Y71.091 E.04304
G1 X168.874 Y71.627 E.01691
G1 X167.373 Y70.126 E.06695
G1 X166.837 Y70.126 E.01691
M73 Q3 S46
G1 X168.874 Y72.163 E.09086
G1 X168.874 Y72.7 E.01694
G1 X166.3 Y70.126 E.11481
M73 P3 R46
G1 X165.764 Y70.126 E.01691
G1 X168.874 Y73.236 E.13872
G1 X168.874 Y73.773 E.01694
G1 X165.227 Y70.126 E.16267
G1 X164.691 Y70.126 E.01691
G1 X168.874 Y74.309 E.18658
G1 X168.874 Y74.846 E.01694
G1 X164.154 Y70.126 E.21053
G1 X163.618 Y70.126 E.01691
G1 X168.874 Y75.382 E.23444
G1 X168.874 Y75.918 E.01691
G1 X163.082 Y70.126 E.25835
G1 X162.545 Y70.126 E.01694
G1 X168.874 Y76.455 E.2823
G1 X168.874 Y76.991 E.01691
G1 X162.009 Y70.126 E.30621
G1 X161.472 Y70.126 E.01694
G1 X168.874 Y77.528 E.33016
G1 X168.874 Y78.064 E.01691
G1 X160.936 Y70.126 E.35407
G1 X160.399 Y70.126 E.01694
G1 X164.147 Y73.874 E.16718
G1 X164.467 Y73.906 E.01014
G1 X164.686 Y74 E.00752
G1 X164.862 Y74.138 E.00705
G1 X165 Y74.314 E.00705
G1 X165.094 Y74.533 E.00752
G1 X165.126 Y74.853 E.01014
G1 X168.874 Y78.601 E.16718
G1 X168.874 Y79.137 E.01691
G1 X165.126 Y75.39 E.16715
G1 X165.126 Y75.926 E.01691
G1 X168.874 Y79.673 E.16715
G1 X168.874 Y80.21 E.01694
G1 X165.126 Y76.463 E.16715
G1 X165.126 Y76.999 E.01691
G1 X168.874 Y80.746 E.16715
G1 X168.874 Y81.283 E.01694
G1 X165.126 Y77.536 E.16715
G1 X165.126 Y78.072 E.01691
G1 X168.874 Y81.819 E.16715
G1 X168.874 Y82.356 E.01694
G1 X165.126 Y78.608 E.16718
G1 X165.126 Y79.145 E.01694
G1 X168.874 Y82.892 E.16715
G1 X168.874 Y83.428 E.01691
G1 X165.126 Y79.681 E.16715
G1 X165.126 Y80.218 E.01694
G1 X168.874 Y83.965 E.16715
G1 X168.874 Y84.501 E.01691
G1 X165.126 Y80.754 E.16715
G1 X165.126 Y81.291 E.01694
G1 X168.874 Y85.038 E.16715
G1 X168.874 Y85.574 E.01691
G1 X165.126 Y81.827 E.16715
G1 X165.126 Y82.363 E.01691
G1 X168.874 Y86.111 E.16718
G1 X168.874 Y86.647 E.01691
G1 X165.126 Y82.9 E.16715
G1 X165.126 Y83.436 E.01691
G1 X168.874 Y87.183 E.16715
G1 X168.874 Y87.72 E.01694
G1 X165.126 Y83.973 E.16715
G1 X165.126 Y84.509 E.01691
G1 X168.874 Y88.256 E.16715
G1 X168.874 Y88.793 E.01694
G1 X165.126 Y85.046 E.16715
G1 X165.126 Y85.582 E.01691
G1 X168.874 Y89.329 E.16715
G1 X168.874 Y89.866 E.01694
G1 X165.126 Y86.118 E.16718
G1 X165.126 Y86.655 E.01694
G1 X168.874 Y90.402 E.16715
G1 X168.874 Y90.938 E.01691
G1 X165.126 Y87.191 E.16715
G1 X165.126 Y87.728 E.01694
G1 X168.874 Y91.475 E.16715
G1 X168.874 Y92.011 E.01691
G1 X165.126 Y88.264 E.16715
G1 X165.126 Y88.801 E.01694
G1 X168.874 Y92.548 E.16715
G1 X168.874 Y93.084 E.01691
G1 X165.126 Y89.337 E.16715
G1 X165.126 Y89.873 E.01691
G1 X168.874 Y93.621 E.16718
G1 X168.874 Y94.157 E.01691
G1 X165.126 Y90.41 E.16715
G1 X165.126 Y90.946 E.01691
G1 X168.874 Y94.693 E.16715
G1 X168.874 Y95.23 E.01694
G1 X165.126 Y91.483 E.16715
G1 X165.126 Y92.019 E.01691
G1 X168.874 Y95.766 E.16715
G1 X168.874 Y96.303 E.01694
G1 X165.126 Y92.556 E.16715
G1 X165.126 Y93.092 E.01691
G1 X168.874 Y96.839 E.16715
G1 X168.874 Y97.376 E.01694
G1 X165.126 Y93.628 E.16718
G1 X165.126 Y94.165 E.01694
G1 X168.874 Y97.912 E.16715
G1 X168.874 Y98.448 E.01691
G1 X165.126 Y94.701 E.16715
G1 X165.126 Y95.238 E.01694
M73 P3 R45
G1 X168.874 Y98.985 E.16715
G1 X168.874 Y99.521 E.01691
G1 X165.126 Y95.774 E.16715
G1 X165.126 Y96.311 E.01694
G1 X168.874 Y100.058 E.16715
G1 X168.874 Y100.594 E.01691
G1 X165.126 Y96.847 E.16715
G1 X165.126 Y97.383 E.01691
G1 X168.874 Y101.131 E.16718
G1 X168.874 Y101.667 E.01691
G1 X165.126 Y97.92 E.16715
G1 X165.126 Y98.456 E.01691
G1 X168.874 Y102.203 E.16715
G1 X168.874 Y102.74 E.01694
G1 X165.126 Y98.993 E.16715
G1 X165.126 Y99.529 E.01691
G1 X168.874 Y103.276 E.16715
G1 X168.874 Y103.813 E.01694
G1 X165.126 Y100.066 E.16715
G1 X165.126 Y100.602 E.01691
G1 X168.874 Y104.349 E.16715
G1 X168.874 Y104.886 E.01694
G1 X165.126 Y101.138 E.16718
G1 X165.126 Y101.675 E.01694
G1 X168.874 Y105.422 E.16715
G1 X168.874 Y105.958 E.01691
G1 X165.126 Y102.211 E.16715
G1 X165.126 Y102.748 E.01694
G1 X168.874 Y106.495 E.16715
G1 X168.874 Y107.031 E.01691
G1 X165.126 Y103.284 E.16715
G1 X165.126 Y103.821 E.01694
G1 X168.874 Y107.568 E.16715
G1 X168.874 Y108.104 E.01691
G1 X165.126 Y104.357 E.16715
G1 X165.126 Y104.893 E.01691
G1 X168.874 Y108.641 E.16718
G1 X168.874 Y109.177 E.01691
G1 X165.126 Y105.43 E.16715
G1 X165.126 Y105.966 E.01691
G1 X168.874 Y109.713 E.16715
G1 X168.874 Y110.25 E.01694
G1 X165.126 Y106.503 E.16715
G1 X165.126 Y107.039 E.01691
G1 X168.874 Y110.786 E.16715
G1 X168.874 Y111.323 E.01694
G1 X165.126 Y107.576 E.16715
G1 X165.126 Y108.112 E.01691
G1 X168.874 Y111.859 E.16715
